X: 21564
T: Kilfenora, The
R: reel
M: 4/4
K: Dmajor
|:ec|d2 dA BAFB|ADFD ED D/E/F|D2 FA BAFB|ABde f2:|
dg|f2 fa gfed|Bdef g2 fe|fd f/g/a g2 fg|af g/f/e fddc|
dfaf gfed|cABc d2 e/f/g|afge fdec|cdeg f2||

